public/chains/citrea.svg

<svg width="64" height="64" viewBox="0 0 64 64" fill="none" xmlns="http://www.w3.org/2000/svg">
  <rect width="64" height="64" rx="16" fill="#0B1020"/>
  <path d="M43 18C34.7157 18 28 24.7157 28 33C28 41.2843 34.7157 48 43 48C47.166 48 50.9473 46.3129 53.666 43.584L48.294 38.212C47.0021 39.5136 45.218 40.312 43 40.312C38.365 40.312 34.688 36.635 34.688 32C34.688 27.365 38.365 23.688 43 23.688C45.218 23.688 47.0021 24.4864 48.294 25.788L53.666 20.416C50.9473 17.6871 47.166 18 43 18Z" fill="#F97316"/>
  <path d="M18 23H24L28.5 33L24 43H18L22.5 33L18 23Z" fill="#38BDF8"/>
  <path d="M24 18H30L34.5 28L30 38H24L28.5 28L24 18Z" fill="#F8FAFC" opacity="0.95"/>
</svg>

<svg xmlns="http://www.w3.org/2000/svg" width="64" height="64" fill="none" viewBox="0 0 64 64"><rect width="64" height="64" fill="#0b1020" rx="16"/><path fill="#f97316" d="M43 18c-8.284 0-15 6.716-15 15s6.716 15 15 15c4.166 0 7.947-1.687 10.666-4.416l-5.372-5.372c-1.292 1.302-3.076 2.1-5.294 2.1A8.256 8.256 0 0 1 34.688 32 8.256 8.256 0 0 1 43 23.688c2.218 0 4.002.798 5.294 2.1l5.372-5.372C50.947 17.687 47.166 18 43 18"/><path fill="#38bdf8" d="M18 23h6l4.5 10L24 43h-6l4.5-10z"/><path fill="#f8fafc" d="M24 18h6l4.5 10L30 38h-6l4.5-10z" opacity=".95"/></svg>
